packages/components/src/images/icons/backup.svg

<svg height="16" viewBox="0 0 16 16" width="16" xmlns="http://www.w3.org/2000/svg"><path d="m12 2c1.1045695 0 2 .8954305 2 2v8c0 1.1045695-.8954305 2-2 2h-8c-1.1045695 0-2-.8954305-2-2v-8c0-1.1045695.8954305-2 2-2zm0 1.3h-8c-.35438271 0-.64725823.26334362-.69360983.60501415l-.00639017.09498585v8c0 .3543827.26334362.6472582.60501415.6936098l.09498585.0063902h8c.3543827 0 .6472582-.2633436.6936098-.6050141l.0063902-.0949859v-8c0-.35438271-.2633436-.64725823-.6050141-.69360983zm-1.6 6.5c.3313708 0 .6.2686292.6.6s-.2686292.6-.6.6h-4.8c-.33137085 0-.6-.2686292-.6-.6s.26862915-.6.6-.6zm0-2.4c.3313708 0 .6.26862915.6.6s-.2686292.6-.6.6h-4.8c-.33137085 0-.6-.26862915-.6-.6s.26862915-.6.6-.6zm0-2.4c.3313708 0 .6.26862915.6.6s-.2686292.6-.6.6h-4.8c-.33137085 0-.6-.26862915-.6-.6s.26862915-.6.6-.6z" fill-rule="evenodd"/></svg>

<?xml version="1.0" encoding="UTF-8"?>
<svg width="16px" height="16px" viewBox="0 0 16 16" version="1.1" xmlns="http://www.w3.org/2000/svg" xmlns:xlink="http://www.w3.org/1999/xlink">
    <!-- Generator: Sketch 63.1 (92452) - https://sketch.com -->
    <title>Icon/Features/Backup</title>
    <desc>Created with Sketch.</desc>
    <g id="Icon/Features/Backup" stroke="none" stroke-width="1" fill="none" fill-rule="evenodd">
        <path d="M12,2 C13.1045695,2 14,2.8954305 14,4 L14,12 C14,13.1045695 13.1045695,14 12,14 L4,14 C2.8954305,14 2,13.1045695 2,12 L2,4 C2,2.8954305 2.8954305,2 4,2 L12,2 Z M12,3.3 L4,3.3 C3.64561729,3.3 3.35274177,3.56334362 3.30639017,3.90501415 L3.3,4 L3.3,12 C3.3,12.3543827 3.56334362,12.6472582 3.90501415,12.6936098 L4,12.7 L12,12.7 C12.3543827,12.7 12.6472582,12.4366564 12.6936098,12.0949859 L12.7,12 L12.7,4 C12.7,3.64561729 12.4366564,3.35274177 12.0949859,3.30639017 L12,3.3 Z M10.4,9.8 C10.7313708,9.8 11,10.0686292 11,10.4 C11,10.7313708 10.7313708,11 10.4,11 L5.6,11 C5.26862915,11 5,10.7313708 5,10.4 C5,10.0686292 5.26862915,9.8 5.6,9.8 L10.4,9.8 Z M10.4,7.4 C10.7313708,7.4 11,7.66862915 11,8 C11,8.33137085 10.7313708,8.6 10.4,8.6 L5.6,8.6 C5.26862915,8.6 5,8.33137085 5,8 C5,7.66862915 5.26862915,7.4 5.6,7.4 L10.4,7.4 Z M10.4,5 C10.7313708,5 11,5.26862915 11,5.6 C11,5.93137085 10.7313708,6.2 10.4,6.2 L5.6,6.2 C5.26862915,6.2 5,5.93137085 5,5.6 C5,5.26862915 5.26862915,5 5.6,5 L10.4,5 Z" id="Rectangle" ></path>
    </g>
</svg>
